X: 64
T:Gan Ainm
M:C
L:1/8
K:G
eABA eABA | BGGA Bcdg | eABA eABA | Beed BA a2 |!
eABA eABA | BGGA Bcd2 | efed BAGA | Beed BA a2 ||!
|:abag edef|g2 bgd'gbg|a2 ag edBA | Beed BAa2:||
